src/assets/filled/Chart.svg

<?xml version="1.0" encoding="UTF-8"?>
<svg width="24" height="24" viewBox="0 0 24 24" xmlns="http://www.w3.org/2000/svg">
 <path d="m12 2c-5.52 0-10 4.48-10 10s4.48 10 10 10 10-4.48 10-10-4.48-10-10-10zm0 6.75c-0.41 0-0.75-0.34-0.75-0.75s0.34-0.75 0.75-0.75c2.62 0 4.75 2.13 4.75 4.75s-2.13 4.75-4.75 4.75c-0.41 0-0.75-0.34-0.75-0.75s0.34-0.75 0.75-0.75c1.79 0 3.25-1.46 3.25-3.25s-1.46-3.25-3.25-3.25zm0 11c-4.27 0-7.75-3.48-7.75-7.75 0-0.41 0.34-0.75 0.75-0.75s0.75 0.34 0.75 0.75c0 3.45 2.8 6.25 6.25 6.25s6.25-2.8 6.25-6.25-2.8-6.25-6.25-6.25c-0.41 0-0.75-0.34-0.75-0.75s0.34-0.75 0.75-0.75c4.27 0 7.75 3.48 7.75 7.75s-3.48 7.75-7.75 7.75z"/>
</svg>

<svg width="24" height="24" viewBox="0 0 24 24"  xmlns="http://www.w3.org/2000/svg">
<path d="M12 2C6.48 2 2 6.48 2 12C2 17.52 6.48 22 12 22C17.52 22 22 17.52 22 12C22 6.48 17.52 2 12 2ZM12 8.75C11.59 8.75 11.25 8.41 11.25 8C11.25 7.59 11.59 7.25 12 7.25C14.62 7.25 16.75 9.38 16.75 12C16.75 14.62 14.62 16.75 12 16.75C11.59 16.75 11.25 16.41 11.25 16C11.25 15.59 11.59 15.25 12 15.25C13.79 15.25 15.25 13.79 15.25 12C15.25 10.21 13.79 8.75 12 8.75ZM12 19.75C7.73 19.75 4.25 16.27 4.25 12C4.25 11.59 4.59 11.25 5 11.25C5.41 11.25 5.75 11.59 5.75 12C5.75 15.45 8.55 18.25 12 18.25C15.45 18.25 18.25 15.45 18.25 12C18.25 8.55 15.45 5.75 12 5.75C11.59 5.75 11.25 5.41 11.25 5C11.25 4.59 11.59 4.25 12 4.25C16.27 4.25 19.75 7.73 19.75 12C19.75 16.27 16.27 19.75 12 19.75Z" />
</svg>
